X:1
T:Title
%%score { ( 1 3 ) | ( 2 4 ) }
L:1/8
Q:1/4=100
M:4/4
K:F
V:1 treble nm="Grand Piano"
V:3 treble 
V:2 bass 
V:4 bass 
V:1
 [CFA]2 [CFA][CFA] [CGc]2 [CGB][CFA] | [B,EG]2 [CEA][B,EG] [B,EG]2 [A,F]2 | %2
w: J.~Howard~Entwisle * * * * *||
 [B,FB]2 [Fc][Fd] [CFc]2 [CEB][CFA] | [CEB]2 [CFA]>[CFA] [CEG]4 | %4
w: ||
 [CFA]2 [CFA][CFA] [CGc]2 [CGB][CFA] | [Fd]2 [Fe][Fd] d2 c2 | c2 cc c2 FG | A2 [EG]>[CG] [CF]4 | %8
w: ||||
 [EG]2 [Ec]>[Ed] [Fc][F=B] [FB]2 | [FG]2 [Fd]>[Fe] [Fd][Ec] [Ec]2 | C2 EG c2 [Ge][Ge] | %11
w: |||
 d2 =B>B z2 B,2 | c2 A>c [Fd][Fd] c2 | c2 A>c [Fd][Fd] c2 | f2 ed dccA | [EB]2 G-[CG] F4 |] %16
w: |||||
V:2
 F,2 F,F, E,2 E,F, | C,2 C,C, C,2 F,2 | D,2 [C,A,][B,,B,] A,,2 G,,F,, | G,,2 F,,>A,, C,4 | %4
 F,2 F,F, E,2 E,F, | [B,,B,]2 [B,,C][B,,B,][K:treble] [F,B,F]2 [F,A,F]2 | %6
 [F,A,F]2 [G,B,E][G,B,E] [A,CF]2 [B,D][=B,DF] | [CF]2[K:bass] [C,B,]>[C,B,] [F,A,]4 | %8
 [C,G,]2 [G,,G,]>[G,,G,] [D,G,][D,G,] [G,,G,]2 | [=B,,G,]2 [G,,G,]>[G,,G,] [C,G,][C,G,] [C,G,]2 | %10
 C,2 E,G, C2 [C,C][C,C] | [F,A,F]2 [G,D]>[G,F][K:bass] G,2 z2 | %12
 [F,A,F]2 [F,CF]>[F,A,F] [B,,B,][D,B,] [F,A,F]2 | %13
 [F,A,F]2 [F,CF]>[F,A,F] [B,,B,][D,B,][K:treble] [F,A,F]2 | %14
 [DFd]2 [CEc][B,DB] [B,DB][A,CA][A,CA][CF] | [C,G,]2 [C,B,]2 [F,A,C]4 |] %16
V:3
 x8 | x8 | x8 | x8 | x8 | x8 | x8 | x8 | x8 | x8 | x8 | z4 [Ec]4 | x8 | x8 | x8 | z2 .E2 z4 |] %16
V:4
 x8 | x8 | x8 | x8 | x8 | x4[K:treble] x4 | x8 | x2[K:bass] x6 | x8 | x8 | x8 | z4[K:bass] C,4 | %12
 x8 | x6[K:treble] x2 | x8 | x8 |] %16

